X: 1
T: En fumant ma pipe
T: While smoking my pipe
C: trad
O: Qu\'ebec
R: reel
Z: 2007 John Chambers <jc:trillian.mit.edu> from Pascal Gemme's blog
M: 2/4
L: 1/16
K: Ador
E2 \
| AEAB cBcd | e=fec AABA | G2BG dGBG | G2BG A2G2 || AEAB cBcd |
| e=fec A2BA | G2BG dGBG | ABcB A2 :: z2 | a2ag e2eg | abag e2ef |
| g2f2 g3e | dedB G4 || a2e2 e2eg | abag e2ef | g2e2 d2B2 | ABcB A2 :|
